!!!OTL: STORCH STORCH STANE FLIEG UEBER HANE
!!!ARE: Europa, Mitteleuropa, Deutschland, Odenwald, Alsbach
!!!SCT: K0749
!!!YEM: Copyright 1995, estate of Helmut Schaffrath.
**kern
*ICvox
*Ivox
*M2/4
*k[b-]
*F:
=1
{8cc
8cc
8dd
8dd
=2
8cc
8cc
8a
8r
=3
8cc
8cc
8dd
8dd
=4
8cc
8cc
8a
8r}
=5
{8cc
8cc
8dd
8dd
=6
8cc
8cc
8a
8r
=7
8cc
8cc
8dd
8dd
=8
8cc
8cc
8a
8r}
=9
{8cc
8cc
8dd
8dd
=10
8cc
8cc
8a
8r
=11
8cc
8cc
8dd
8dd
=12
8cc
8cc
8a
8r}
=13
{8cc
8cc
8dd
8dd
=14
8cc
8cc
8a
8r
=15
8cc
8cc
8dd
8dd
=16
8cc
8cc
8a
8r}
=17
{4cc
4b-
=18
2a}
==
!!!AGN: Kinder -, Tier - Lied
!!!ONB: ESAC (Essen Associative Code) Database: KINDER
!!!AMT: simple duple
!!!AIN: vox
!!!EED: Helmut Schaffrath
!!!EEV: 1.0
*-
